X: 36377
T: Séan Óg
R: reel
M: 4/4
K: Dmajor
A|:dcde fdec|dBAF GFEF|DF (3FEF ADFA|edef gece|
dcde fdec|dBAF BFEF|DF (3FEF ADFA|gece d4:|
|:faaf bafb|afed BAFB|AF (3FEF ADFA|fedf edBd|
faaf bafb|afed BAFB|AF (3FEF ADFA|gece d4:|

